icon-themes/colibre_dark_svg/sw/res/doublepage_a_10x22.svg

<svg viewBox="0 0 22 10" xmlns="http://www.w3.org/2000/svg"><g fill="#1e8bcd"><path d="m6 0c-.1325995.00002553-.2597597.05271625-.3535156.14648438l-2.5 2.50000002c-.0937681.0937559-.1464589.2209161-.1464844.3535156v1 3 2c0 .554.446 1 1 1h6c.554 0 1-.446 1-1v-8c0-.554-.446-1-1-1h-.9648438-.0351562-2zm0 1h1 2 1v8h-6v-1.9648438c.0004121-.0117151.0004121-.0234411 0-.0351562v-3-1h2z"/><path d="m16 0c.132599.00002553.25976.05271625.353516.14648438l2.5 2.50000002c.093768.0937559.146458.2209161.146484.3535156v1 3 2c0 .554-.446 1-1 1h-6c-.554 0-1-.446-1-1v-8c0-.554.446-1 1-1h.964844.035156 2zm0 1h-1-2-1v8h6v-1.9648438c-.000412-.0117151-.000412-.0234411 0-.0351562v-3-1h-2z"/></g></svg>

<?xml version="1.0" encoding="UTF-8" standalone="no"?>
<svg
   viewBox="0 0 22 14"
   version="1.1"
   id="svg393"
   sodipodi:docname="doublepage_a_10x22.svg"
   width="22"
   height="14"
   inkscape:export-filename="doublepage_a_10x22.png"
   inkscape:export-xdpi="90"
   inkscape:export-ydpi="90"
   inkscape:version="1.2.2 (b0a8486541, 2022-12-01)"
   xmlns:inkscape="http://www.inkscape.org/namespaces/inkscape"
   xmlns:sodipodi="http://sodipodi.sourceforge.net/DTD/sodipodi-0.dtd"
   xmlns="http://www.w3.org/2000/svg"
   xmlns:svg="http://www.w3.org/2000/svg">
  <defs
     id="defs397" />
  <sodipodi:namedview
     id="namedview395"
     pagecolor="#505050"
     bordercolor="#ffffff"
     borderopacity="1"
     inkscape:showpageshadow="0"
     inkscape:pageopacity="0"
     inkscape:pagecheckerboard="1"
     inkscape:deskcolor="#505050"
     showgrid="false"
     inkscape:zoom="23.6"
     inkscape:cx="11.144068"
     inkscape:cy="5.1694915"
     inkscape:window-width="1345"
     inkscape:window-height="622"
     inkscape:window-x="53"
     inkscape:window-y="246"
     inkscape:window-maximized="0"
     inkscape:current-layer="svg393" />
  <g
     fill="#1e8bcd"
     id="g391"
     transform="translate(0,2)">
    <path
       d="M 6,0 C 5.8674005,2.553e-5 5.7402403,0.05271625 5.6464844,0.14648438 l -2.5,2.50000002 C 3.0527163,2.7402403 3.0000255,2.8674005 3,3 v 1 3 2 c 0,0.554 0.446,1 1,1 h 6 c 0.554,0 1,-0.446 1,-1 V 1 C 11,0.446 10.554,0 10,0 H 9.0351562 9 7 Z m 0,1 h 1 2 1 V 9 H 4 V 7.0351562 C 4.0004121,7.0234411 4.0004121,7.0117151 4,7 V 4 3 h 2 z"
       id="path387" />
    <path
       d="m 16,0 c 0.132599,2.553e-5 0.25976,0.05271625 0.353516,0.14648438 l 2.5,2.50000002 C 18.947284,2.7402403 18.999974,2.8674005 19,3 v 1 3 2 c 0,0.554 -0.446,1 -1,1 H 12 C 11.446,10 11,9.554 11,9 V 1 C 11,0.446 11.446,0 12,0 H 12.964844 13 15 Z m 0,1 h -1 -2 -1 v 8 h 6 V 7.0351562 C 17.999588,7.0234411 17.999588,7.0117151 18,7 V 4 3 h -2 z"
       id="path389" />
  </g>
  <rect
     style="fill:none;stroke:#fafafa;stroke-width:0.999996;stroke-linecap:round;stroke-linejoin:bevel;stroke-opacity:1;paint-order:markers stroke fill"
     id="rect1539"
     width="19"
     height="13.000002"
     x="1.5"
     y="0.49999997" />
</svg>
